X: 160
T:Jota de Pontevedra
M:3/8
L:1/16
Q:72
C:Trad
R:Jota
K:C
"F."c2 EDEF | GF AG E2- | E2 cB AG | FE GF D2- |
D2 CB, DC | ED FE GF | AG FE FD |1 GF AG E2 :|2 ED B,D C2-
|: C2 GE CE | GE CE GE | C2 GE CE | GE CE GE | D2 GF DF |
GF DF GF | D2 GF DF | GF DE CC :| |: EC CC EC |
EC CC CC | EC CC EC | FD DD DD | FD DD FD |
FD DD DD | FE GFED | EC CC CC :| "F."c2 CEEC |:
CE EC C2 | "F."c2 CE EC | CE EC D2 | "F."c2 DF FD |
DF FD D2| "F."c2 DF FE |1 GF ED C2- | C2 CE EC :|2 
GF ED C2 ||

